src/img/staking/inactive/ic_titan.svg

<svg xmlns="http://www.w3.org/2000/svg" width="28" height="28" viewBox="0 0 28 28" fill="none">
  <path
    d="M19.3105 12.3408V15.6582L14 17.3955L8.68945 15.6582V12.3408L14 10.6035L19.3105 12.3408Z"
    stroke="#9FA3BC" stroke-width="1.4" />
  <path
    d="M19.3105 9.52051V9.73242L14.2188 8.05957L13.999 7.9873L13.7793 8.06055L8.68945 9.74902V9.52051L13.999 7.75391L19.3105 9.52051Z"
    fill="#2D42FC" stroke="#696D96" stroke-width="1.4" />
  <path
    d="M19.3105 18.479V18.2671L14.2188 19.9399L13.999 20.0122L13.7793 19.939L8.68945 18.2505V18.479L13.999 20.2456L19.3105 18.479Z"
    fill="#2D42FC" stroke="#696D96" stroke-width="1.4" />
  <path d="M17.5136 13.5097L14 12.6221L10.4863 13.5097V14.3959L14 15.3774L17.5136 14.3959V13.5097Z"
    fill="#696D96" />
</svg>

<svg xmlns="http://www.w3.org/2000/svg" width="28" height="28" fill="none" viewBox="0 0 28 28">
  <path stroke="#646A8F" stroke-width="1.4" d="M19.31 12.34v3.318L14 17.395l-5.31-1.737v-3.317L14 10.604l5.31 1.737Z" opacity=".5"/>
  <path fill="#7885FF" stroke="#A0A3C4" stroke-width="1.4" d="M19.31 9.52v.212L14.22 8.06 14 7.987l-.22.074-5.09 1.688v-.228L14 7.754l5.312 1.767Zm0 8.959v-.212l-5.091 1.672-.22.073-.22-.073-5.09-1.689v.229L14 20.245l5.312-1.767Z"/>
  <path fill="#A0A3C4" d="M17.514 13.51 14 12.622l-3.514.888v.886l3.514.981 3.514-.981v-.886Z"/>
</svg>
